X:167
T:No-Body TS.167
T:Davy-Davy Knick-Knack,aka TS.167
T:La Belle Isabelle,aka TS.167
M:2/4
L:1/16
Q:1/4=120
S:Thomas Sands’ MS,1810,Lincolnshire
R:reel
O:England;Lincolnshire
Z:vmp.Ruairidh Greig, 2011
K:Bb
(BABc) d2d2|BABc d2d2|(fede) c2c2|fede c2c2|
(BABc) d2d2|BABc d2d2|(fede) (fedc)|B2B2B4:|
|:f2f2d2d2|b2b2f4|(fede) c2c2|fede c2c2|
f2f2d2d2|b2b2f4|(dgfe) dcBA|B2B2B4:|]

